Plastika/img/call.svg

<svg width="40" height="39" viewBox="0 0 40 39" fill="none" xmlns="http://www.w3.org/2000/svg">
<path d="M38.2209 34.1611L38.2209 34.1611L38.2176 34.1689C38.0662 34.5294 37.7519 34.9409 37.2259 35.3979C36.7033 35.8519 35.9952 36.3307 35.0913 36.8321C33.434 37.7308 31.8151 38.1696 30.2291 38.1696C29.7569 38.1696 29.2996 38.139 28.8568 38.0782C28.4186 38.018 27.9159 37.9094 27.3467 37.7493C26.7637 37.5853 26.3426 37.4564 26.0755 37.3616C25.7967 37.2627 25.2931 37.0767 24.5613 36.8023L24.3857 37.2704L24.5613 36.8023C23.8408 36.5321 23.3841 36.3641 23.2048 36.3041C21.4433 35.6746 19.8777 34.931 18.5051 34.0753L18.5032 34.0742C16.203 32.6545 13.8143 30.7105 11.338 28.2342C8.86164 25.7578 6.91765 23.3692 5.49798 21.0689L5.4968 21.067C4.64114 19.6944 3.89752 18.1288 3.26808 16.3673C3.208 16.1879 3.04004 15.7313 2.76986 15.0108C2.49544 14.2791 2.30944 13.7754 2.21053 13.4966C2.11575 13.2296 1.98682 12.8084 1.82285 12.2254C1.66278 11.6562 1.5541 11.1535 1.49396 10.7153C1.43319 10.2726 1.40259 9.81523 1.40259 9.34306C1.40259 7.75701 1.84131 6.13809 2.74009 4.48087C3.24143 3.5769 3.72024 2.86878 4.17426 2.34623C4.63125 1.82027 5.04278 1.50592 5.40327 1.35451L5.4033 1.35457L5.41103 1.35117C5.8272 1.16806 6.41931 0.984371 7.20088 0.804701C7.98021 0.625543 8.58325 0.543076 9.02292 0.543076C9.25851 0.543076 9.36855 0.570584 9.40207 0.584949L9.42118 0.593141L9.43333 0.597191C9.43648 0.599358 9.4664 0.616471 9.52353 0.672956C9.59606 0.744676 9.68808 0.855434 9.7993 1.01492C10.0216 1.33362 10.2903 1.80291 10.6058 2.43394L10.6126 2.44761L10.6203 2.46085C10.818 2.80242 11.0898 3.29153 11.4366 3.93029L11.876 3.69174L11.4366 3.93029C11.785 4.57206 12.1062 5.15485 12.4002 5.67854C12.6949 6.20348 12.9808 6.69691 13.2579 7.15872L13.2712 7.18084L13.2866 7.20147C13.3341 7.26473 13.4871 7.48305 13.7553 7.87141C14.0132 8.245 14.194 8.54595 14.3063 8.77858C14.4065 8.98615 14.4486 9.17283 14.4486 9.34306C14.4486 9.40923 14.4238 9.52844 14.3187 9.71271C14.215 9.8947 14.0481 10.1137 13.8042 10.3704C13.3027 10.8983 12.757 11.3824 12.1668 11.8229C11.5368 12.293 10.9526 12.7923 10.4145 13.3209C10.1376 13.593 9.91229 13.8575 9.75353 14.1138C9.59716 14.3662 9.4831 14.6462 9.4831 14.9395C9.4831 15.1881 9.5502 15.4572 9.65139 15.7304C9.74485 15.9828 9.83 16.1903 9.90624 16.3428C9.9815 16.4933 10.1206 16.7302 10.3121 17.0403C10.4079 17.1953 10.4812 17.315 10.5327 17.4C10.5727 17.466 10.5933 17.5013 10.6016 17.5154C10.6053 17.5217 10.6065 17.5238 10.6058 17.5224L10.6106 17.532L10.6158 17.5413C12.0254 20.0825 13.6437 22.27 15.4729 24.0992C17.3021 25.9285 19.4897 27.5467 22.0308 28.9564L22.0401 28.9616L22.0497 28.9663C22.0484 28.9657 22.0504 28.9669 22.0567 28.9705C22.0708 28.9788 22.1061 28.9995 22.1722 29.0395C22.2571 29.0909 22.3768 29.1643 22.5318 29.26C22.8419 29.4515 23.0788 29.5906 23.2294 29.6659C23.3818 29.7421 23.5894 29.8273 23.8417 29.9207C24.1149 30.0219 24.384 30.089 24.6326 30.089C24.9259 30.089 25.206 29.975 25.4583 29.8186C25.7146 29.6598 25.9791 29.4346 26.2512 29.1576C26.7799 28.6195 27.2791 28.0353 27.7493 27.4053C28.1897 26.8151 28.6738 26.2694 29.2018 25.7679C29.4584 25.5241 29.6774 25.3572 29.8594 25.2534C30.0437 25.1484 30.1629 25.1236 30.2291 25.1236C30.3993 25.1236 30.586 25.1657 30.7936 25.2659C31.0262 25.3782 31.3271 25.5589 31.7007 25.8169C32.0891 26.085 32.3074 26.2381 32.3707 26.2855L32.3913 26.301L32.4134 26.3143C32.8752 26.5913 33.3686 26.8772 33.8936 27.1719C34.4173 27.4659 35.0001 27.7872 35.6418 28.1355C36.2806 28.4823 36.7697 28.7541 37.1113 28.9518L37.1245 28.9595L37.1382 28.9663C37.7692 29.2819 38.2385 29.5506 38.5572 29.7728C38.7167 29.8841 38.8274 29.9761 38.8992 30.0486C38.9556 30.1057 38.9727 30.1356 38.9749 30.1388L38.979 30.151L38.9872 30.1701C39.0015 30.2036 39.029 30.3136 39.029 30.5492C39.029 30.9889 38.9466 31.5919 38.7674 32.3713C38.5877 33.1528 38.4041 33.7449 38.2209 34.1611Z" fill="#0C647B" stroke="#0C647B"/>
</svg>

<svg width="40" height="39" fill="none" xmlns="http://www.w3.org/2000/svg"><path d="M38.22 34.161h0l-.002.008c-.152.36-.466.772-.992 1.229-.523.454-1.23.933-2.135 1.434-1.657.899-3.276 1.338-4.862 1.338-.472 0-.93-.031-1.372-.092-.438-.06-.941-.169-1.51-.329a21.93 21.93 0 01-1.271-.387c-.28-.1-.783-.285-1.515-.56l-.175.468.175-.468a58.97 58.97 0 00-1.356-.498c-1.762-.63-3.327-1.373-4.7-2.229h-.002c-2.3-1.42-4.689-3.365-7.165-5.84-2.476-2.477-4.42-4.866-5.84-7.166l-.001-.002c-.856-1.373-1.6-2.938-2.229-4.7-.06-.18-.228-.636-.498-1.356a124.23 124.23 0 01-.56-1.514 21.9 21.9 0 01-.387-1.272 11.356 11.356 0 01-.329-1.51c-.06-.442-.091-.9-.091-1.372 0-1.586.438-3.205 1.337-4.862.501-.904.98-1.612 1.434-2.135.457-.526.869-.84 1.23-.991h0l.007-.004c.416-.183 1.008-.367 1.79-.546.78-.18 1.382-.262 1.822-.262.236 0 .346.028.38.042l.018.008.012.004c.003.002.033.02.09.076.073.072.165.182.276.342.223.319.491.788.807 1.419l.007.014.007.013c.198.341.47.83.817 1.47l.439-.24-.44.24c.349.641.67 1.224.964 1.748.295.524.58 1.018.858 1.48l.013.022.016.02c.047.064.2.282.468.67.258.374.439.675.551.908.1.207.143.394.143.564 0 .066-.025.185-.13.37a3.56 3.56 0 01-.515.657 12.876 12.876 0 01-1.637 1.453c-.63.47-1.214.97-1.752 1.498a4.403 4.403 0 00-.661.793c-.157.252-.27.532-.27.825 0 .25.066.518.167.791.094.253.179.46.255.613.075.15.215.387.406.697.096.155.17.275.22.36l.07.115.004.007.005.01.005.01c1.41 2.54 3.028 4.728 4.857 6.557 1.83 1.83 4.017 3.448 6.558 4.857l.01.006.009.004c-.002 0 0 0 .007.005l.115.069c.085.05.205.124.36.22.31.191.547.33.697.406.153.076.36.161.613.255.273.1.542.168.79.168.294 0 .574-.114.826-.27a4.4 4.4 0 00.793-.661 17.022 17.022 0 001.498-1.753c.44-.59.925-1.136 1.453-1.637.256-.244.475-.41.657-.515.185-.105.304-.13.37-.13.17 0 .357.043.565.143.232.112.533.293.907.55.388.269.606.422.67.47l.02.015.022.013c.462.277.956.563 1.48.858.524.294 1.107.615 1.749.963.639.347 1.128.62 1.47.817l.012.007.014.007c.631.316 1.1.585 1.42.807.159.111.27.203.341.276.057.057.074.087.076.09l.004.012.008.02c.014.033.042.143.042.378 0 .44-.082 1.043-.262 1.822-.18.782-.363 1.374-.546 1.79z" fill="#0C647B" stroke="#0C647B"/></svg>
